X: 5
T: Donnybrook Fair
R: jig
M: 6/8
L: 1/8
K: Gmaj
D2 |: GFG A3 | Bee dBA | BAB G2B | AGE EDE |
| GFG AGA | Be2 dBA | BAB GAB |1 AGF G3 :|2AGF GBd||
|: gfe fed | efe dBA | efe dBA | Bee e2f |
|1gfe fed | efe dBA | BAB GAB | AGF GBd :|
|2 g3 aga | bge dBA | BAB G2B | AGF G3 |


Tune 26	Setting 25013

